X: 23452
T: Let Nature Be Your Teacher
R: barndance
M: 4/4
K: Gmajor
|:D>E|G2 D>[B,G] D>EG>A|B>de>f g2 (3edB|(3ege d>B e>dd>B|1 A>BA>G E2:|2 A>B (3AGF G2||
(3Bcd|[d2b2] B>d b>g (3ggg|a>ba>g e>dd>B|(3ddd B>d b>gB>g|a>ge>f g2 (3GAB|
d>G (3Bcd b>gB>g|a>ba>g e>dd>e|g>de>g d>B (3BBB|A>GE>F G2||

